packages/icon/src/svg/social-stackoverflow.icon.svg

<svg width="24" height="24" viewBox="0 0 24 24" fill="none" xmlns="http://www.w3.org/2000/svg">
<path fill-rule="evenodd" clip-rule="evenodd" d="M18 20V15H20V22H4V15H6V20H18ZM8.14002 12.5599L16.93 14.4099L16.56 16.1699L7.77002 14.3199L8.14002 12.5599ZM9.68999 8.5L17.83 12.28L17.07 13.9L8.92999 10.11L9.68999 8.5ZM12.34 4.73999L19.24 10.5L18.09 11.87L11.19 6.11999L12.34 4.73999ZM21 9.08L19.56 10.15L14.2 2.94L15.64 1.87L21 9.08ZM7.59003 16.61H16.57V18.41H7.59003V16.61Z" fill="white"/>
</svg>

<svg aria-label="social stackoverflow icon" viewBox="0 0 24 24"><path fill-rule="evenodd" clip-rule="evenodd" d="M18 20v-5h2v7H4v-7h2v5h12zm-9.86-7.44l8.79 1.85-.37 1.76-8.79-1.85.37-1.76zM9.69 8.5l8.14 3.78-.76 1.62-8.14-3.79.76-1.61zm2.65-3.76l6.9 5.76-1.15 1.37-6.9-5.75 1.15-1.38zM21 9.08l-1.44 1.07-5.36-7.21 1.44-1.07L21 9.08zM7.59 16.61h8.98v1.8H7.59v-1.8z"/></svg>
